X:172
T: Minden ember szerencsés
M: 2/4
L: 1/8
K: F
ggde | fedc | 
fedc | Bc GG | 
fedc | Bc GG | 
BcBd | dG AG | 

